Papirus/32x32/apps/accessories-calculator.svg

<svg xmlns="http://www.w3.org/2000/svg" width="32" height="32" version="1">
 <path fill="#666" d="m30 16v12.5c0 0.831-0.669 1.5-1.5 1.5h-12.5v-14h14z"/>
 <path fill="#595959" d="m28.5 2c0.831 0 1.5 0.669 1.5 1.5v12.5h-14v-14h12.5z"/>
 <path fill="#8c8c8c" d="m2 16v12.5c0 0.831 0.669 1.5 1.5 1.5h12.5v-14h-14z"/>
 <path opacity=".2" d="m2 28.5v1c0 0.831 0.669 1.5 1.5 1.5h25c0.831 0 1.5-0.669 1.5-1.5v-1c0 0.831-0.669 1.5-1.5 1.5h-25c-0.831 0-1.5-0.669-1.5-1.5z"/>
 <path fill="#a6a6a6" d="m3.5 2c-0.831 0-1.5 0.669-1.5 1.5v12.5h14v-14h-12.5z"/>
 <circle fill="#07ce8e" fill-rule="evenodd" cx="23" cy="23" r="8"/>
 <path fill="#ebebeb" d="m9 6v3h-3v1h3v3h1v-3h3v-1h-3v-3z"/>
 <path fill="#ebebeb" d="m20 9v1h6v-1z"/>
 <path fill="#fff" opacity=".2" d="m3.5 2c-0.831 0-1.5 0.669-1.5 1.5v1c0-0.831 0.669-1.5 1.5-1.5h25c0.831 0 1.5 0.669 1.5 1.5v-1c0-0.831-0.669-1.5-1.5-1.5h-25z"/>
 <path fill="#ebebeb" fill-rule="evenodd" d="m6.3535 19.646-0.707 0.708 2.6465 2.646-2.6465 2.646 0.707 0.708 2.6465-2.647 2.646 2.647 0.708-0.708-2.647-2.646 2.647-2.646-0.708-0.708-2.646 2.647-2.6465-2.647z"/>
 <path fill="#ffffff" d="m20 21v1h6v-1zm0 3v1h6v-1z"/>
 <path opacity=".2" d="m30.979 23.424a8 8 0 0 1 -7.979 7.576 8 8 0 0 1 -7.979 -7.424 8 8 0 0 0 -0.021 0.424 8 8 0 0 0 8 8 8 8 0 0 0 8 -8 8 8 0 0 0 -0.02148 -0.57617z"/>
</svg>

<svg xmlns="http://www.w3.org/2000/svg" width="32" height="32" version="1">
 <rect style="opacity:0.2" width="28" height="28" x="2" y="3" rx="1.5" ry="1.5"/>
 <path style="fill:#666666" d="M 30,16 V 28.5 C 30,29.331 29.331,30 28.5,30 H 15 V 16 Z"/>
 <path style="fill:#8c8c8c" d="M 2,15 V 28.5 C 2,29.331 2.669,30 3.5,30 H 16 V 15 Z"/>
 <path style="fill:#a6a6a6" d="M 3.5,2 C 2.669,2 2,2.669 2,3.5 V 16 H 17 V 2 Z"/>
 <path style="fill:#595959" d="M 28.5,2 C 29.331,2 30,2.669 30,3.5 V 16 H 16 V 2 Z"/>
 <path style="opacity:0.2;fill:#ffffff" d="m3.5 2c-0.831 0-1.5 0.669-1.5 1.5v1c0-0.831 0.669-1.5 1.5-1.5h25c0.831 0 1.5 0.669 1.5 1.5v-1c0-0.831-0.669-1.5-1.5-1.5h-25z"/>
 <circle style="opacity:0.2" cx="23" cy="24" r="8"/>
 <circle style="fill:#07ce8e" cx="23" cy="23" r="8"/>
 <path style="fill:#ebebeb" d="M 9,6 V 9 H 6 V 10 H 9 V 13 H 10 V 10 H 13 V 9 H 10 V 6 Z"/>
 <path style="fill:#ebebeb" d="M 20,9 V 10 H 26 V 9 Z"/>
 <path style="fill:#ffffff" d="M 20,21 V 22 H 26 V 21 Z M 20,24 V 25 H 26 V 24 Z"/>
 <path style="fill:#ebebeb" d="M 6.3535,19.646 5.6465,20.354 8.293,23 5.6465,25.646 6.3535,26.354 9,23.707 11.646,26.354 12.354,25.646 9.707,23 12.354,20.354 11.646,19.646 9,22.293 Z"/>
</svg>
